X:1
T:C minor Stephen Jenks, 1818
T:Adapted from Benjamin Beddome, 1779 66. 86. (S. M.)
T:Compassion
T:Transcribed from Jenks' The Harmony of Zion, 1818.
%%score [ 1 2 3 4 ]
L:1/8
Q:1/4=100
M:2/4
K:Eb
V:1 treble nm="Tr." snm="Tr."
V:2 treble nm="C." snm="C."
V:3 treble-8 nm="T." snm="T."
V:4 bass nm="B." snm="B."
V:1
 G2 G>G | G2 G2 | G2 z B | B2 Bc/d/ | e2 dc | (c2 =B) z | B2 BB | B3 f | f2 fe | d2 z e | e2 f2 | %11
w: 1.~Did Christ for|sin- ners|die? And|shall our * *|cheeks be *|dry?~ _|Let floods of|pe- ni-|ten- tial *|grief Burst|forth from|
 e2 d2 | c4 |] %13
w: eve- ry|eye.|
V:2
 C2 E>E | E2 D2 | E2 z B, | B,2 B,2 | B,2 FD | G2- G z | G2 GG | F3 D | CA A2 | G2 z G | G2 FA | %11
w: 2.~The Son of|God in|tears! An-|gels with|won- der *|see,~ _|Be thou a-|sto- nished,|O * my|soul, He|shed those *|
 G2 G2 | G4 |] %13
w: tears for|thee.|
V:3
 c2 c>c | c2 =B2 | c2 z d | e2 fg/a/ | g2 fe | (e2 d) z | e2 ee | d3 d | c2 c2 | =B2 z G | c2 c2 | %11
w: 3.~He wept that|we might|weep, Each|sin de- * *|mands a *|tear;~ _|In heav'n a-|lone no|sin is|found, And|there's no|
 c2 =B2 | c4 |] %13
w: wee- ping|there.|
V:4
 C,2 C,>C, | C,2 G,2 | C,2 z G, | E,2 B,,2 | E,2 F,2 | G,2- G, z | E,2 E,E, | B,,3 B,, | F,2 F,2 | %9
 G,2 z E, | A,2 F,2 | G,2 G,,2 | C,4 |] %13

